!!!OTL: MIR GEFAELLT DAS EHSTANDSLEBEN BESSER
!!!ARE: Europa, Mitteleuropa, Deutschland, Hessen, Ober - Lahnkreis
!!!SCT: E0868B
!!!YEM: Copyright 1995, estate of Helmut Schaffrath.
**kern
*ICvox
*Ivox
*M2/4
*k[f#]
*G:
=1
{4g
4d
=2
8e
8f#
8g
8b
=3
8a
16cc
16b
4a
=4
4g
4a}
=5
{8b
8dd
8cc
8a
=6
8b
8g
4cc
=7
8.dd
16cc
[4b
=8
4b]
4r}
=9
{4b
4b
=10
4b
4dd
=11
8.cc
16b
4a
=12
4g
[4a
=13
4a]
4r}
=14
{4b
4a
=15
8b
8dd
8cc
8a
=16
8b
8g
4cc
=17
8.dd
16cc
[4b
=18
4b]
4r}
=19
{4b
4b
=20
4b
4dd
=21
8.cc
16b
4a
=22
4g
[4a
=23
4a]
4r}
=24
{4b
4a
=25
8b
8dd
8cc
8a
=26
8b
8g
4cc
=27
8.dd
16cc
[4b
=28
2b]}
==
!!!AGN: Hochzeits -, Ehestands - Lied +++ Zeilenenden rhythm. vereinheitlicht+++
!!!ONB: ESAC (Essen Associative Code) Database: ERK2
!!!AMT: simple duple
!!!AIN: vox
!!!EED: Helmut Schaffrath
!!!EEV: 1.0
*-
